X: 0
T: The Humours Of Tulla
C: Trad
R: reel
M: 4/4
L: 1/8
K: Dmaj
|:"D"d2Ad BdAB|d2fd edBc|d2Ad BdAd|1 (3Bcd ef "G"g2fe:|2 "D"(3Bcd ef "G"g2fg||
|:"D"af~f2 df~f2|af~f2 "G"efge|"D"af~f2 dfed|1 (3Bcd ef "G"g2fg:|2 "D"(3Bcd ef "G"g2fe|| 